icons/mark-github-16.svg

<svg width="16" height="16" viewBox="0 0 16 16" fill="none" xmlns="http://www.w3.org/2000/svg">
<path d="M6.76562 11.3281C4.70312 11.0781 3.25 9.59375 3.25 7.67188C3.25 6.89063 3.53125 6.04688 4 5.48438C3.79688 4.96875 3.82813 3.875 4.0625 3.42188C4.6875 3.34375 5.53125 3.67188 6.03125 4.125C6.625 3.9375 7.25 3.84375 8.01562 3.84375C8.78125 3.84375 9.40625 3.9375 9.96875 4.10938C10.4531 3.67188 11.3125 3.34375 11.9375 3.42188C12.1562 3.84375 12.1875 4.9375 11.9844 5.46875C12.4844 6.0625 12.75 6.85938 12.75 7.67188C12.75 9.59375 11.2969 11.0469 9.20312 11.3125C9.73438 11.6562 10.0938 12.4062 10.0938 13.2656V14.8906C10.0938 15.3594 10.4844 15.625 10.9531 15.4375C13.7812 14.3594 16 11.5312 16 8.03125C16 3.60938 12.4062 0 7.98438 0C3.5625 0 0 3.60938 0 8.03125C0 11.5 2.20312 14.375 5.17188 15.4531C5.59375 15.6094 6 15.3281 6 14.9062V13.6563C5.78125 13.75 5.5 13.8125 5.25 13.8125C4.21875 13.8125 3.60938 13.25 3.17188 12.2031C3 11.7812 2.8125 11.5313 2.45312 11.4844C2.26562 11.4688 2.20312 11.3906 2.20312 11.2969C2.20312 11.1094 2.51562 10.9688 2.82812 10.9688C3.28125 10.9688 3.67188 11.25 4.07812 11.8281C4.39062 12.2813 4.71875 12.4844 5.10938 12.4844C5.5 12.4844 5.75 12.3438 6.10938 11.9844C6.375 11.7188 6.57812 11.4844 6.76562 11.3281Z" fill="#010409"/>
</svg>

<svg xmlns="http://www.w3.org/2000/svg" width="16" height="16" viewBox="0 0 16 16"><path d="M6.766 11.328c-2.063-.25-3.516-1.734-3.516-3.656 0-.781.281-1.625.75-2.188-.203-.515-.172-1.609.062-2.062.626-.078 1.469.25 1.969.703.594-.187 1.219-.281 1.985-.281.765 0 1.39.094 1.953.265.484-.437 1.343-.765 1.969-.687.218.422.25 1.516.046 2.047.5.593.766 1.39.766 2.203 0 1.922-1.453 3.375-3.547 3.64.531.344.891 1.094.891 1.954v1.625c0 .468.39.734.859.547C13.781 14.359 16 11.531 16 8.031 16 3.609 12.406 0 7.984 0S0 3.609 0 8.031a7.88 7.88 0 0 0 5.172 7.422c.422.156.828-.125.828-.547v-1.25c-.219.094-.5.156-.75.156-1.031 0-1.641-.562-2.078-1.609-.172-.422-.36-.672-.719-.719-.187-.015-.25-.093-.25-.187 0-.188.313-.328.625-.328.453 0 .844.281 1.25.859.313.453.641.656 1.031.656.391 0 .641-.14 1-.5.266-.265.469-.5.657-.656"/></svg>
